customize.dist/images/irc.svg

<svg enable-background="new 0 0 24 24" viewBox="0 0 24 24" xmlns="http://www.w3.org/2000/svg" xmlns:xlink="http://www.w3.org/1999/xlink"><linearGradient id="a"><stop offset="0" stop-color="#4592c4"/><stop offset="1" stop-color="#545acd"/></linearGradient><linearGradient id="b" gradientUnits="userSpaceOnUse" x1="4.7893" x2="6.7712" xlink:href="#a" y1="12.0669" y2="12.0669"/><linearGradient id="c" gradientUnits="userSpaceOnUse" x1=".4529" x2="23.5471" xlink:href="#a" y1="12" y2="12"/><path d="m4.8 13h1.6l.4-1.8h-1.7z" fill="url(#b)"/><path d="m21.6 17.8c0-.1.1-.1.1-.2 1.2-1.7 1.8-3.8 1.8-6 0-6.2-5.2-11.2-11.5-11.2s-11.5 5-11.5 11.2 5.2 11.1 11.6 11.1c1.6 0 3.1-.3 4.5-.9h.1c.2-.1.4-.1.6-.1s.5 0 .7.1l4.7 1.7-1.2-4.9c-.1-.3-.1-.5.1-.8zm-12.5-6.6h-1.6l-.3 1.8h1.5v.7h-1.7l-.4 2.3h-.8l.5-2.3h-1.6l-.5 2.3h-.7l.4-2.3h-1.4v-.7h1.5l.4-1.8h-1.5v-.7h1.6l.5-2.4h.7l-.4 2.3h1.6l.5-2.3h.7l-.5 2.3h1.4v.8zm2.1 4.8h-.9v-5.9h.9zm-.1-7.1c-.1.1-.2.2-.4.2s-.3 0-.4-.1-.2-.2-.2-.4.1-.4.2-.4c.1-.1.2-.1.4-.1.1 0 .3 0 .4.1s.2.2.2.4-.1.3-.2.3zm5.2 2c-.2-.1-.5-.1-.6-.1-.5 0-.9.2-1.2.6s-.5.9-.5 1.4v3.2h-.9v-5.9h.7l.1 1.1c.2-.4.5-.7.8-.9s.6-.3 1-.3c.3 0 .5 0 .7.1zm1.6 4.4c-.5-.5-.7-1.3-.7-2.2 0-1 .2-1.7.7-2.3s1.2-.8 2-.8c.3 0 .6 0 .8.1.3.1.5.1.7.2l-.3.8c-.2-.1-.4-.1-.6-.2s-.4-.1-.6-.1c-1.2 0-1.8.8-1.8 2.3 0 .7.1 1.3.4 1.7s.7.6 1.3.6c.5 0 1-.1 1.5-.3v.8c-.4.2-.9.3-1.5.3-.7-.1-1.4-.4-1.9-.9z" fill="url(#c)"/></svg>

<?xml version="1.0" encoding="utf-8"?>
<!-- Generator: Adobe Illustrator 21.1.0, SVG Export Plug-In . SVG Version: 6.00 Build 0)  -->
<svg version="1.1" id="Layer_1" xmlns="http://www.w3.org/2000/svg" xmlns:xlink="http://www.w3.org/1999/xlink" x="0px" y="0px"
	 viewBox="0 0 24 24" style="enable-background:new 0 0 24 24;" xml:space="preserve">
<style type="text/css">
	.st0{fill:url(#SVGID_1_);}
	.st1{fill:url(#SVGID_2_);}
</style>
<g>
	<linearGradient id="SVGID_1_" gradientUnits="userSpaceOnUse" x1="4.7893" y1="12.0669" x2="6.7712" y2="12.0669">
		<stop  offset="0" style="stop-color:#4592C4"/>
		<stop  offset="1" style="stop-color:#545ACD"/>
	</linearGradient>
	<polygon class="st0" points="4.8,13 6.4,13 6.8,11.2 5.1,11.2 	"/>
	<linearGradient id="SVGID_2_" gradientUnits="userSpaceOnUse" x1="0.4529" y1="12" x2="23.5471" y2="12">
		<stop  offset="0" style="stop-color:#4592C4"/>
		<stop  offset="1" style="stop-color:#545ACD"/>
	</linearGradient>
	<path class="st1" d="M21.6,17.8c0-0.1,0.1-0.1,0.1-0.2c1.2-1.7,1.8-3.8,1.8-6c0-6.2-5.2-11.2-11.5-11.2S0.5,5.4,0.5,11.6
		c0,6.2,5.2,11.1,11.6,11.1c1.6,0,3.1-0.3,4.5-0.9c0,0,0.1,0,0.1,0c0,0,0,0,0,0c0.2-0.1,0.4-0.1,0.6-0.1c0.2,0,0.5,0,0.7,0.1
		l4.7,1.7l-1.2-4.9C21.4,18.3,21.4,18.1,21.6,17.8z M9.1,11.2H7.5L7.2,13h1.5v0.7H7L6.6,16H5.8l0.5-2.3H4.7L4.2,16H3.5l0.4-2.3H2.5
		V13h1.5l0.4-1.8H2.9v-0.7h1.6L5,8.1h0.7l-0.4,2.3h1.6l0.5-2.3h0.7l-0.5,2.3h1.4V11.2z M11.2,16h-0.9v-5.9h0.9V16z M11.1,8.9
		C11,9,10.9,9.1,10.7,9.1c-0.2,0-0.3,0-0.4-0.1c-0.1-0.1-0.2-0.2-0.2-0.4c0-0.2,0.1-0.4,0.2-0.4c0.1-0.1,0.2-0.1,0.4-0.1
		c0.1,0,0.3,0,0.4,0.1s0.2,0.2,0.2,0.4S11.2,8.9,11.1,8.9z M16.3,10.9c-0.2-0.1-0.5-0.1-0.6-0.1c-0.5,0-0.9,0.2-1.2,0.6
		c-0.3,0.4-0.5,0.9-0.5,1.4V16h-0.9v-5.9h0.7l0.1,1.1h0c0.2-0.4,0.5-0.7,0.8-0.9c0.3-0.2,0.6-0.3,1-0.3c0.3,0,0.5,0,0.7,0.1
		L16.3,10.9z M17.9,15.3c-0.5-0.5-0.7-1.3-0.7-2.2c0-1,0.2-1.7,0.7-2.3s1.2-0.8,2-0.8c0.3,0,0.6,0,0.8,0.1c0.3,0.1,0.5,0.1,0.7,0.2
		l-0.3,0.8c-0.2-0.1-0.4-0.1-0.6-0.2c-0.2-0.1-0.4-0.1-0.6-0.1c-1.2,0-1.8,0.8-1.8,2.3c0,0.7,0.1,1.3,0.4,1.7s0.7,0.6,1.3,0.6
		c0.5,0,1-0.1,1.5-0.3v0.8c-0.4,0.2-0.9,0.3-1.5,0.3C19.1,16.1,18.4,15.8,17.9,15.3z"/>
</g>
</svg>
